X: 40554
T: Tommy Peoples'
R: mazurka
M: 3/4
K: Dmajor
DF|:"D"AF A2 dc|"Em7"BG B2 ed|"A"cB c2 BA|"D"F4 DF|
AF A2 dc|"Em"BG B2 ed|"A7"cB cA BA||1 "D"d4 DF:|2 "D"d4 fg||
|:"D"af d2 A2|"G"c2 B2 ef|"A7"ge c2 A2|"D"GA F2 fg|
"Bm7"af d2 A2|"Em7"c2 B2 ef|"A7"ge cA Bc||1 "D"d4 fg:|2 "D"d6||

